X: 10822
M: 2/4
L: 1/16
K: Bb
f2 |\
g2g2 f2f2 | g2g2 f2f2 | g2g2 gfed | fedc Bcde |\
g2g2 gfff | (fg).g.g f2f2 | g2g2 gfed | dcBA B4 |]


